src/static/logos/terraform.svg

<?xml version="1.0" encoding="UTF-8" standalone="no"?>
<svg width="256px" height="288px" viewBox="0 0 256 288" version="1.1" xmlns="http://www.w3.org/2000/svg" xmlns:xlink="http://www.w3.org/1999/xlink" preserveAspectRatio="xMidYMid">
    <g>
        <path d="M87.3483423,49.909048 L169.843948,97.0452411 L169.843948,189.637714 L87.3483423,142.501392 L87.3483423,49.909048 L87.3483423,49.909048 Z M174.222231,189.222177 L256,142.226168 L256,50.2322794 L174.222231,96.9051941 L174.222231,189.222177 L174.222231,189.222177 Z M0,92.5923443 L82.4955975,139.728675 L82.4955975,47.1363217 L0,0 L0,92.5923443 L0,92.5923443 Z M87.3483423,240.540449 L169.843948,287.676771 L169.843948,194.761062 L87.3483423,147.62486 L87.3483423,240.540449 L87.3483423,240.540449 Z" fill="#000000"></path>
    </g>
</svg>

<svg width="256" height="288" xmlns="http://www.w3.org/2000/svg" preserveAspectRatio="xMidYMid"><path d="M87.348 49.909l82.496 47.136v92.593L87.348 142.5V49.91zm86.874 139.313L256 142.226V50.232l-81.778 46.673v92.317zM0 92.592l82.496 47.137V47.136L0 0v92.592zM87.348 240.54l82.496 47.137V194.76l-82.496-47.136v92.915z"/></svg>
